app/img/icons/ic--billiard.svg

<svg xmlns="http://www.w3.org/2000/svg" preserveAspectRatio="xMidYMid" width="30.031" height="30.032" viewBox="0 0 30.031 30.032"><defs><style>.cls-1{fill:#fff;fill-rule:evenodd}</style></defs><path d="M25.628 4.395h-.007A14.931 14.931 0 0 0 15.012-.008C6.731-.008-.016 6.741-.016 15.023a14.94 14.94 0 0 0 4.403 10.594 14.921 14.921 0 0 0 10.625 4.411 14.9 14.9 0 0 0 10.616-4.411 14.932 14.932 0 0 0 4.395-10.594c0-3.854-1.467-7.708-4.395-10.628zM9.593 26.273h-.509a13.045 13.045 0 0 1-3.066-2.272 12.716 12.716 0 0 1-3.723-8.978c0-7.027 5.707-12.727 12.717-12.727 3.255 0 6.501 1.247 8.977 3.723a12.502 12.502 0 0 1 2.263 3.083c.016.156 0 .32 0 .492a12.867 12.867 0 0 1-.18 1.796c-.304 1.681-.936 3.345-1.805 4.912a20.584 20.584 0 0 1-3.427 4.534c-1.369 1.362-2.91 2.542-4.541 3.435-1.574.87-3.231 1.501-4.903 1.805-.623.098-1.23.18-1.803.197zm14.396-2.272c-2.459 2.485-5.722 3.715-8.977 3.715a12.52 12.52 0 0 1-3.026-.361c1.706-.344 3.387-.992 4.968-1.853 1.763-.984 3.411-2.247 4.87-3.682a22.174 22.174 0 0 0 3.657-4.863c.878-1.574 1.525-3.255 1.869-4.969.246 1.001.377 2.001.377 3.035 0 3.247-1.246 6.494-3.738 8.978zM16.176 6.47l-.033-.049c-1.205-1.222-2.91-1.706-4.665-1.525-3.657.385-6.912 3.632-7.289 7.306-.188 1.746.32 3.444 1.526 4.649 1.213 1.222 2.91 1.713 4.664 1.534 1.689-.181 3.452-1.001 4.87-2.428 1.427-1.419 2.247-3.181 2.427-4.87.164-1.739-.32-3.411-1.5-4.617zm.123 4.469c-.156 1.394-.837 2.845-2.034 4.034-1.18 1.198-2.647 1.878-4.033 2.034-1.353.131-2.64-.23-3.542-1.132-.901-.902-1.262-2.181-1.123-3.542.303-3.001 3.042-5.756 6.059-6.052 1.344-.147 2.639.222 3.533 1.124l.025.032c.885.894 1.246 2.174 1.115 3.502z" class="cls-1"/></svg>

<svg xmlns="http://www.w3.org/2000/svg" xmlns:xlink="http://www.w3.org/1999/xlink" preserveAspectRatio="xMidYMid" width="30.031" height="30.032" viewBox="0 0 30.031 30.032">
  <defs>
    <style>
      .cls-1 {
        fill: #fff;
        fill-rule: evenodd;
      }
    </style>
  </defs>
  <path d="M25.628,4.395 L25.621,4.395 C22.693,1.460 18.857,-0.008 15.012,-0.008 C6.731,-0.008 -0.016,6.741 -0.016,15.023 C-0.016,18.852 1.459,22.697 4.387,25.617 C7.322,28.568 11.167,30.028 15.012,30.028 C18.857,30.028 22.693,28.568 25.628,25.617 C28.556,22.697 30.023,18.852 30.023,15.023 C30.023,11.169 28.556,7.315 25.628,4.395 L25.628,4.395 ZM9.593,26.273 L9.593,26.273 C9.429,26.273 9.256,26.273 9.084,26.273 C7.986,25.682 6.952,24.936 6.018,24.001 C3.542,21.517 2.295,18.253 2.295,15.023 C2.295,7.996 8.002,2.296 15.012,2.296 C18.267,2.296 21.513,3.543 23.989,6.019 C24.924,6.954 25.678,7.996 26.252,9.102 C26.268,9.258 26.252,9.422 26.252,9.594 C26.235,10.168 26.178,10.775 26.072,11.390 C25.768,13.071 25.136,14.735 24.267,16.302 C23.366,17.926 22.201,19.475 20.840,20.836 C19.471,22.198 17.930,23.378 16.299,24.271 C14.725,25.141 13.068,25.772 11.396,26.076 C10.773,26.174 10.166,26.256 9.593,26.273 L9.593,26.273 ZM23.989,24.001 L23.989,24.001 C21.530,26.486 18.267,27.716 15.012,27.716 C13.987,27.716 12.978,27.601 11.986,27.355 C13.692,27.011 15.373,26.363 16.954,25.502 C18.717,24.518 20.365,23.255 21.824,21.820 C23.251,20.385 24.513,18.712 25.481,16.957 C26.359,15.383 27.006,13.702 27.350,11.988 C27.596,12.989 27.727,13.989 27.727,15.023 C27.727,18.270 26.481,21.517 23.989,24.001 L23.989,24.001 ZM16.176,6.470 L16.176,6.470 L16.143,6.421 C14.938,5.199 13.233,4.715 11.478,4.896 C7.821,5.281 4.566,8.528 4.189,12.202 C4.001,13.948 4.509,15.646 5.715,16.851 C6.928,18.073 8.625,18.564 10.379,18.385 C12.068,18.204 13.831,17.384 15.249,15.957 C16.676,14.538 17.496,12.776 17.676,11.087 C17.840,9.348 17.356,7.676 16.176,6.470 L16.176,6.470 ZM16.299,10.939 L16.299,10.939 C16.143,12.333 15.462,13.784 14.265,14.973 C13.085,16.171 11.618,16.851 10.232,17.007 C8.879,17.138 7.592,16.777 6.690,15.875 C5.789,14.973 5.428,13.694 5.567,12.333 C5.870,9.332 8.609,6.577 11.626,6.281 C12.970,6.134 14.265,6.503 15.159,7.405 L15.184,7.437 C16.069,8.331 16.430,9.611 16.299,10.939 L16.299,10.939 Z" class="cls-1"/>
</svg>
